svg/other/axe_line.svg

<?xml version="1.0" encoding="UTF-8"?>
<svg width="24px" height="24px" viewBox="0 0 24 24" version="1.1" xmlns="http://www.w3.org/2000/svg" xmlns:xlink="http://www.w3.org/1999/xlink">
    <title>axe_line</title>
    <g id="Icon" stroke="none" stroke-width="1" fill="none" fill-rule="evenodd">
        <g id="Other" transform="translate(-624.000000, 0.000000)">
            <g id="axe_line" transform="translate(624.000000, 0.000000)">
                <path d="M24,0 L24,24 L0,24 L0,0 L24,0 Z M12.5935,23.2578 L12.5819,23.2595 L12.5109,23.295 L12.4919,23.2987 L12.4767,23.295 L12.4057,23.2595 C12.3958,23.2564 12.387,23.259 12.3821,23.2649 L12.378,23.2758 L12.3609,23.7031 L12.3659,23.7235 L12.3769,23.7357 L12.4805,23.8097 L12.4953,23.8136 L12.5071,23.8097 L12.6107,23.7357 L12.6233,23.7197 L12.6267,23.7031 L12.6096,23.2758 C12.6076,23.2657 12.601,23.2593 12.5935,23.2578 Z M12.8584,23.1453 L12.8445,23.1473 L12.6598,23.2397 L12.6499,23.2499 L12.6472,23.2611 L12.6651,23.6906 L12.6699,23.7034 L12.6784,23.7105 L12.8793,23.8032 C12.8914,23.8069 12.9022,23.803 12.9078,23.7952 L12.9118,23.7812 L12.8777,23.1665 C12.8753,23.1546 12.8674,23.147 12.8584,23.1453 Z M12.143,23.1473 C12.1332,23.1424 12.1222,23.1453 12.1156,23.1526 L12.1099,23.1665 L12.0758,23.7812 C12.0751,23.7927 12.0828,23.8019 12.0926,23.8046 L12.1083,23.8032 L12.3092,23.7105 L12.3186,23.7024 L12.3225,23.6906 L12.3404,23.2611 L12.3372,23.2485 L12.3278,23.2397 L12.143,23.1473 Z" id="MingCute" fill-rule="nonzero"></path>
                <path d="M6.77795,2.02497 C7.04552,1.96403 7.32637,2.01573 7.5547,2.16795 C8.74601,2.96216 10.3965,3.45171 12.273,3.72644 C14.1353,3.9991 16.1328,4.04845 17.9579,4.02228 C19.0196409,4.007055 19.9150957,4.81934281 19.994307,5.87599092 L20,6.02854 L20,8.97147 C20,10.1014 19.0702,10.9937 17.9579,10.9777 C17.5339,10.9716333 17.1005667,10.9696556 16.6617815,10.9735741 L16,10.9841 L16,20.9999976 C16,21.5128498 15.613973,21.9355071 15.1166239,21.9932701 L15,21.9999976 L12,21.9999976 C11.48715,21.9999976 11.0644908,21.6139726 11.0067275,21.116622 L11,20.9999976 L11,11.502 C9.65168,11.7932 8.46819,12.2231 7.5547,12.8321 C7.32637,12.9843 7.04552,13.036 6.77795,12.975 C6.38667,12.8859091 6.21925777,12.685638 6.08448842,12.4265793 L5.93656,12.1131 L5.93656,12.1131 L5.87952093,11.9870014 L5.87952093,11.9870014 L5.75354,11.6851875 C5.6874925,11.518 5.61777,11.32665 5.54847,11.1123 C5.27126,10.2546 5,9.02552 5,7.49999758 C5,5.97449 5.27126,4.74537 5.54847,3.88775 C5.64087,3.60189667 5.73402111,3.35700778 5.81821074,3.15574407 L5.93656,2.8869 L5.93656,2.8869 C6.11588,2.50025 6.32597,2.1279 6.77795,2.02497 Z M14,11.0827 C13.6648,11.109 13.331,11.1408 13,11.1789 L13,20 L14,20 L14,11.0827 Z M7.47815,4.42196 C7.24743,5.11085 7,6.16165 7,7.5 C7,8.83836 7.24743,9.88917 7.47815,10.578 C8.83181,9.91615 10.4036,9.52594 11.9832,9.29466 C13.9985,8.99962 16.1306,8.97319 18,9 L18.0030269,8.63593142 L18.0030269,8.63593142 L18,6 C16.1306,6.02681 13.9985,6.00039 11.9832,5.70534 C10.4036,5.47407 8.83181,5.08386 7.47815,4.42196 Z" id="形状" fill="#09244B"></path>
            </g>
        </g>
    </g>
</svg>

<svg xmlns="http://www.w3.org/2000/svg" width="24" height="24"><g fill="none" fill-rule="evenodd"><path d="M24 0v24H0V0h24ZM12.594 23.258l-.012.002-.071.035-.02.004-.014-.004-.071-.036c-.01-.003-.019 0-.024.006l-.004.01-.017.428.005.02.01.013.104.074.015.004.012-.004.104-.074.012-.016.004-.017-.017-.427c-.002-.01-.009-.017-.016-.018Zm.264-.113-.014.002-.184.093-.01.01-.003.011.018.43.005.012.008.008.201.092c.012.004.023 0 .029-.008l.004-.014-.034-.614c-.003-.012-.01-.02-.02-.022Zm-.715.002a.023.023 0 0 0-.027.006l-.006.014-.034.614c0 .012.007.02.017.024l.015-.002.201-.093.01-.008.003-.011.018-.43-.003-.012-.01-.01-.184-.092Z"/><path fill="#09244B" d="M6.778 2.025a1 1 0 0 1 .777.143c1.191.794 2.842 1.284 4.718 1.558 1.862.273 3.86.322 5.685.296a2.011 2.011 0 0 1 2.036 1.854l.006.153V8.97a2.01 2.01 0 0 1-2.042 2.007 55.816 55.816 0 0 0-1.296-.004l-.662.01V21a1 1 0 0 1-.883.993L15 22h-3a1 1 0 0 1-.993-.883L11 21v-9.498c-1.348.291-2.532.721-3.445 1.33a1 1 0 0 1-.777.143c-.391-.09-.559-.29-.694-.548l-.147-.314-.057-.126-.126-.302a9.59 9.59 0 0 1-.206-.573A11.769 11.769 0 0 1 5 7.5c0-1.526.271-2.755.548-3.612.093-.286.186-.531.27-.732l.119-.27c.179-.386.389-.758.84-.861ZM14 11.083c-.335.026-.669.058-1 .096V20h1v-8.917ZM7.478 4.422A9.724 9.724 0 0 0 7 7.5c0 1.338.247 2.39.478 3.078 1.354-.662 2.926-1.052 4.505-1.283C13.998 9 16.131 8.973 18 9l.003-.364L18 6c-1.87.027-4.001 0-6.017-.295-1.58-.23-3.151-.621-4.505-1.283Z"/></g></svg>
